X:1680
T:Bobby Casey's
R:reel
C:Michael Dwyer
S:
H:
N:
D:Session (Milltown?)
Z:Adrian Scahill
M:4/4
L:1/8
K:D
DFAB B2AB|d2fd edBd|DFAB B2AB|dfgf edBd|\
DFAB B2AB|d2fd efge|f2af gefe|d2ed Bdd2:||\
d3f eAA2|defg afge|d3f eBB2|gBB2 dBAB|\
d2df efge|fgaf edBd|ABdf afbf|afeg fdd2:||
% These tunes have been compiled and transcribed by Adrian Scahill. 
% They are free for personal use only, and may not be published 
% or reproduced for profit. 
% 
% This file may not be included on a web page for download without
% permission from me. 
%
% I have not generally included ornamentation or variations - and each
% tune is notated as closely as possible to the player's performance. 
% Following from this I have not tried to 'correct' what may be variations,
% wayward versions, instrument-specific quirks etc. 
% 
% I have listed the sources that I know or remember, and have included
% a discography where relevant. 
%
% Last Updated: 4 March 1999.
%
% Questions, Info: Email - adrian@continuo.freeserve.co.uk
% 
%  
% Output from ABC2Win  Version 2.1 h on 2/28/99


